X: 19595
T: Jamie Rae
R: jig
M: 6/8
K: Adorian
a|A>AA a3|geg a3|G>GG g2a|g2d BAG|A>AA a3|geg a3|g2e dBd|eAA A2:|
e|A>AA e2A|d2A B>AA|G>GG g2e|d>Bd B>GB|A>AA e2A|dBA e2a|g>ee d>Bd|e>AA A2:|

